lib/brands/icons/appium.svg

<svg xmlns="http://www.w3.org/2000/svg" fill="none" aria-hidden="true" viewBox="0 0 48 48"><g id="appium-Icon"><g id="Group"><path id="Vector" fill="#662D91" d="M6.04148 22.7903C9.53096 30.8065 18.3853 32.1507 28.9529 25.3561C33.827 29.8673 35.0413 35.2154 30.9742 40.5988C28.8293 41.5011 26.4731 42 24.0001 42C14.059 42 6 33.9412 6 23.9999C6 23.5934 6.01491 23.1902 6.04148 22.7903ZM22.5029 19.3106C24.0786 12.7441 28.4786 8.97755 35.3951 10.0663C39.4269 13.3673 42.0002 18.3829 42.0002 24C42.0002 31.0868 37.9042 37.2158 31.9511 40.1518C37.359 32.4478 32.9397 24.3196 22.5029 19.3106ZM24.0001 6C27.8582 6 31.4323 7.2143 34.3624 9.28079C24.5255 8.13723 19.8802 16.3367 20.5291 27.6597C14.1374 29.6202 8.9303 28.1756 6.17854 21.4656C7.41056 12.7246 14.9194 6 24.0001 6Z"/></g></g></svg>

<svg xmlns="http://www.w3.org/2000/svg" fill="none" aria-hidden="true" viewBox="0 0 48 48"><path fill="#662D91" d="M6.041 22.79c3.49 8.017 12.344 9.36 22.912 2.566 4.874 4.511 6.088 9.86 2.021 15.243A17.943 17.943 0 0 1 24 42c-9.94 0-18-8.059-18-18 0-.407.015-.81.041-1.21Zm16.462-3.48c1.576-6.566 5.976-10.332 12.892-9.244C39.427 13.367 42 18.383 42 24c0 7.087-4.096 13.216-10.049 16.152 5.408-7.704.989-15.832-9.448-20.841ZM24 6a17.92 17.92 0 0 1 10.362 3.28c-9.837-1.143-14.482 7.057-13.833 18.38-6.392 1.96-11.599.516-14.35-6.194C7.41 12.725 14.919 6 24 6Z"/></svg>
